Obsidian-SemiLight/actions/22s/draw-spiral.svg

<svg viewBox="0 0 22 22" xmlns="http://www.w3.org/2000/svg"><path d="m11.037109 3.0019531c-4.0983965.095213-7.5048746 3.5814558-7.4042965 7.7226559.0192682.793371.1732816 1.557646.4316406 2.275391l1.1230469-.367188c-.2215213-.601589-.3561582-1.242259-.3769531-1.908203-.1093884-3.5030555 2.7650274-6.4586921 6.2265621-6.5605465 3.649645-.1073939 6.724685 2.9177129 6.824219 6.5605465.104589 3.828113-3.038229 7.052099-6.824219 7.150391-3.1727049.082379-5.9406184-2.007908-6.9726559-4.875l-1.0644531.347656c1.171463 3.388832 4.4591783 5.725559 8.037109 5.650391 4.400439-.092496 8.058076-3.829459 7.960938-8.273438-.09336-4.271069-3.68771-7.8219216-7.960938-7.7226559zm-5.849609 9.6308589c.8795094 2.388499 3.1980548 4.125188 5.849609 4.035157 3.122758-.106021 5.710965-2.779557 5.595703-5.94336-.107878-2.9612635-2.622066-5.4161928-5.595703-5.2968746-2.7665689.1110089-5.0582666 2.4895776-4.9355465 5.2968746.0230546.527344.151568 1.02694.3339844 1.501953l1.3964843-.455078c-.1387263-.329641-.2387979-.678683-.265625-1.046875-.1473257-2.0220085 1.489756-3.7520423 3.4707028-3.8769528 2.219057-.1399214 4.11028 1.6774916 4.230469 3.8769528.13274 2.429057-1.842094 4.494199-4.230469 4.611329-2.0781676.101918-3.8870195-1.248703-4.6015621-3.109376zm2.6445312-.861328c.5285788 1.256009 1.7828662 2.152889 3.2050778 2.027344 1.531309-.135182 2.793056-1.500759 2.621094-3.074219-.140889-1.2891112-1.301524-2.3562482-2.621094-2.162109-1.010114.1486156-1.8572361 1.10857-1.6269528 2.162109.035679.163223.1065733.321844.1992188.466797l1.427734-.466797c.694606 0 .433378.820433 0 1.011719-.55777.246187-1.1240777-.069821-1.427734-.544922z" fill="#4d4d4d"/></svg>

<svg xmlns="http://www.w3.org/2000/svg" viewBox="0 0 22 22">
  <defs id="defs3051">
    <style type="text/css" id="current-color-scheme">
      .ColorScheme-Text {
        color:#4d4d4d;
      }
      </style>
  </defs>
 <path 
    style="fill:currentColor;fill-opacity:1;stroke:none" 
    d="M 11.037109 3.0019531 C 6.9387125 3.0971661 3.5322344 6.5834089 3.6328125 10.724609 C 3.6520807 11.51798 3.8060941 12.282255 4.0644531 13 L 5.1875 12.632812 C 4.9659787 12.031223 4.8313418 11.390553 4.8105469 10.724609 C 4.7011585 7.2215535 7.5755743 4.2659169 11.037109 4.1640625 C 14.686754 4.0566686 17.761794 7.0817754 17.861328 10.724609 C 17.965917 14.552722 14.823099 17.776708 11.037109 17.875 C 7.8644041 17.957379 5.0964906 15.867092 4.0644531 13 L 3 13.347656 C 4.171463 16.736488 7.4591783 19.073215 11.037109 18.998047 C 15.437548 18.905551 19.095185 15.168588 18.998047 10.724609 C 18.904687 6.45354 15.310337 2.9026874 11.037109 3.0019531 z M 5.1875 12.632812 C 6.0670094 15.021311 8.3855548 16.758 11.037109 16.667969 C 14.159867 16.561948 16.748074 13.888412 16.632812 10.724609 C 16.524934 7.7633455 14.010746 5.3084162 11.037109 5.4277344 C 8.2705401 5.5387433 5.9788424 7.917312 6.1015625 10.724609 C 6.1246171 11.251953 6.2531305 11.751549 6.4355469 12.226562 L 7.8320312 11.771484 C 7.6933049 11.441843 7.5932333 11.092801 7.5664062 10.724609 C 7.4190805 8.7026005 9.0561622 6.9725667 11.037109 6.8476562 C 13.256166 6.7077348 15.147389 8.5251478 15.267578 10.724609 C 15.400318 13.153666 13.425484 15.218808 11.037109 15.335938 C 8.9589414 15.437856 7.1500895 14.087235 6.4355469 12.226562 L 5.1875 12.632812 z M 7.8320312 11.771484 C 8.36061 13.027493 9.6148974 13.924373 11.037109 13.798828 C 12.568418 13.663646 13.830165 12.298069 13.658203 10.724609 C 13.517314 9.4354978 12.356679 8.3683608 11.037109 8.5625 C 10.026995 8.7111156 9.1798729 9.67107 9.4101562 10.724609 C 9.4458352 10.887832 9.5167295 11.046453 9.609375 11.191406 L 11.037109 10.724609 C 11.731715 10.724609 11.470487 11.545042 11.037109 11.736328 C 10.479339 11.982515 9.9130313 11.666507 9.609375 11.191406 L 7.8320312 11.771484 z "
    class="ColorScheme-Text"
    />  
</svg>
